!!!OTL: 44. Skotshne
!!!Genre:	Skotshne
!!!Mode:	Minor
!!!Listening/dance:	listening
!!!One_Mode:	yes
**kern
*I"P1
!!pagebreak:original
*clefG2
*k[b-e-]
*g:
*M2/4
*>[A,B]
*>[A]
=1
(8qcc/
(16b-LL)
16aJ)
8gJ
8gL
8gJ
=2
4.g
16f#XLL
16gJJ
=3
(8qb-/
16aLL)
16gJ
8f#XJ
8f#L
8f#J
=4
4.f#X
8d
!!linebreak:original
=5
(16dLL
16f#X)
(16f#
16aJJ)
(16aLL
16cc)
16b-
16aJJ
=6
2g
=7
16dLL
16g
16f#X
16gJJ
(16aLL
16b-J)
8gJ
=8
(16aLL
16b-J)
8g'J
(16aLL
16b-J)
8g'J
=9
16fnLL
16b-
16a
16b-JJ
(16cc#XLL
16ddJ)
8b-'J
!!linebreak:original
=10
(16cc#XLL
16ddJ)
8b-'J
(16cc#LL
16ddJ)
8b-'J
=11
8ddL
8ddJ
!LO:TX:a:Bi:t=tr
8.cc#XL
16b-Jk
=12
(16ddLL
16cc#X)
16b-'
16a'JJ
4g
=13
8b-L
(8qb-/
16aL)
16gJJ
8aL
(8qa/
16gL)
16f#XJJ
=
*>B
!LO:TX:b:Bi:t=Fine
4g;
!!linebreak:original
=14||
16r
16fLL
16b-
16ccJJ
=15
[4dd
16ddLL]
16cc'
16ff'
16ee-'JJ
=16
[4dd
16ddLL]
16cc
16ff
16ee-JJ
=17
16ddLL
16cc
16ff
16ee-JJ
16ddLL
16cc
16ff
16ee-JJ
!!linebreak:original
=18
16ddLL
16cc
16ff
16ee-JJ
4dd
=19
(16ddLL
16ee-J)
8cc'J
8gL
8ccJ
=20
16cc#XLL
16ddJ
8b-'J
8fL
8b-J
=21
16ddLL
16cc#X
16dd
16cc#JJ
16ddLL
16cc#
16b-
16cc#JJ
!!linebreak:original
=22
8dd
8r
4gg^
=23
(16ddLL
16ee-J)
8ccn'J
8gL
8ccJ
=24
(16cc#XLL
16ddJ)
8b-'J
8dL
8gJ
=25
8b-L
16aL
16gJJ
8aL
16gL
16f#XJJ
=26
4g
!LO:TX:b:Bi:t=D.C. al Fine
16r
16dLL
16g
16aJJ
==
*-